icons/svg/source-fork.svg

﻿<?xml version="1.0" encoding="utf-8"?>
<!DOCTYPE svg PUBLIC "-//W3C//DTD SVG 1.1//EN" "http://www.w3.org/Graphics/SVG/1.1/DTD/svg11.dtd">
<svg xmlns="http://www.w3.org/2000/svg" xmlns:xlink="http://www.w3.org/1999/xlink" version="1.1" baseProfile="full" width="24" height="24" viewBox="0 0 24.00 24.00" enable-background="new 0 0 24.00 24.00" xml:space="preserve">
	<path fill="#000000" fill-opacity="1" stroke-width="1.33333" stroke-linejoin="round" d="M 16,19C 16,21.2091 14.2091,23 12,23C 9.79086,23 8,21.2091 8,19C 8,17.1362 9.27477,15.5701 11,15.126C 11,14.4721 11,13.8182 10.2851,12.7814C 9.57029,11.7447 8.14059,10.3251 6.71089,8.90557C 6.03093,9.03256 5.30912,8.98473 4.61205,8.73102C 2.53614,7.97545 1.4658,5.68008 2.22137,3.60417C 2.97694,1.52826 5.2723,0.457918 7.34821,1.21349C 9.42412,1.96906 10.4945,4.26442 9.7389,6.34033C 9.48519,7.0374 9.05785,7.62109 8.5235,8.06034C 8.92806,9.43778 12,12 12,12.5C 12,12 15.0719,9.43778 15.4765,8.06033C 14.9421,7.62108 14.5148,7.03739 14.2611,6.34032C 13.5055,4.26441 14.5759,1.96905 16.6518,1.21348C 18.7277,0.457911 21.023,1.52826 21.7786,3.60417C 22.5342,5.68008 21.4638,7.97544 19.3879,8.73101C 18.6909,8.98473 17.969,9.03256 17.2891,8.90557C 15.8594,10.3251 14.4297,11.7447 13.7148,12.7814C 13,13.8182 13,14.4721 13,15.126C 14.7252,15.5701 16,17.1362 16,19 Z M 12,17C 10.8954,17 10,17.8954 10,19C 10,20.1046 10.8954,21 12,21C 13.1046,21 14,20.1046 14,19C 14,17.8954 13.1046,17 12,17 Z M 6.66417,3.09286C 5.62622,2.71508 4.47854,3.25026 4.10075,4.28821C 3.72297,5.32617 4.25814,6.47385 5.29609,6.85163C 6.33405,7.22942 7.48173,6.69424 7.85952,5.65629C 8.2373,4.61833 7.70213,3.47065 6.66417,3.09286 Z M 17.3358,3.09286C 16.2979,3.47065 15.7627,4.61833 16.1405,5.65629C 16.5183,6.69424 17.6659,7.22942 18.7039,6.85163C 19.7418,6.47384 20.277,5.32616 19.8992,4.28821C 19.5215,3.25025 18.3738,2.71508 17.3358,3.09286 Z "/>
</svg>

<svg xmlns="http://www.w3.org/2000/svg" version="1.1" baseProfile="full" width="24" height="24" viewBox="0 0 24.00 24.00" xml:space="preserve"><path fill="#000" fill-opacity="1" stroke-width="1.333" stroke-linejoin="round" d="M16 19c0 2.21-1.79 4-4 4s-4-1.79-4-4c0-1.864 1.275-3.43 3-3.874 0-.654 0-1.308-.715-2.345-.715-1.035-2.144-2.455-3.574-3.874-.68.127-1.4.08-2.098-.175-2.076-.755-3.146-3.05-2.39-5.126.755-2.076 3.05-3.146 5.126-2.39 2.076.755 3.147 3.05 2.39 5.126-.253.697-.68 1.28-1.214 1.72C8.928 9.438 12 12 12 12.5c0-.5 3.072-3.062 3.476-4.44-.534-.44-.96-1.023-1.215-1.72-.755-2.076.316-4.37 2.392-5.127 2.076-.755 4.37.315 5.127 2.39.754 2.077-.316 4.372-2.392 5.128-.697.255-1.42.303-2.1.176-1.43 1.42-2.858 2.84-3.573 3.875C13 13.82 13 14.473 13 15.127c1.725.444 3 2.01 3 3.874zm-4-2c-1.105 0-2 .895-2 2s.895 2 2 2 2-.895 2-2-.895-2-2-2zM6.664 3.093C5.626 2.715 4.48 3.25 4.1 4.288c-.377 1.038.158 2.186 1.196 2.564 1.038.377 2.186-.158 2.564-1.196.377-1.038-.158-2.185-1.196-2.563zm10.672 0c-1.038.378-1.573 1.525-1.195 2.563.378 1.038 1.526 1.573 2.564 1.196 1.038-.378 1.573-1.526 1.195-2.564-.378-1.038-1.526-1.573-2.564-1.195z"/></svg>
